icon-themes/breeze_svg/res/odm_48_8.svg

<svg viewBox="0 0 48 48" xmlns="http://www.w3.org/2000/svg"><path d="m10.320312 12.480469c-2.3932795 0-4.320312 1.927012-4.320312 4.320312v14.398438c0 2.3933 1.9270325 4.320312 4.320312 4.320312h7.199219c2.39328 0 4.320313-1.927012 4.320313-4.320312v-1.439453h4.320312v1.439453c0 2.3933 1.927033 4.320312 4.320313 4.320312h7.199219c2.393279 0 4.320312-1.927012 4.320312-4.320312v-14.398438c0-2.3933-1.927032-4.320312-4.320312-4.320312h-7.199219c-2.39328 0-4.320313 1.927012-4.320313 4.320312v1.439453h-4.320312v-1.439453c0-2.3933-1.927033-4.320312-4.320313-4.320312zm0 2.878906h7.199219c.79776 0 1.441407.643606 1.441407 1.441406v1.439453c-2.393281 0-4.320313 1.927013-4.320313 4.320313v2.878906c0 2.3933 1.927033 4.320313 4.320313 4.320313v1.439453c0 .7978-.643647 1.441406-1.441407 1.441406h-7.199219c-.7977595 0-1.4394526-.643606-1.4394526-1.441406v-14.398438c0-.7978.6416931-1.441406 1.4394526-1.441406zm20.160157 0h7.199219c.797759 0 1.439453.643606 1.439453 1.441406v14.398438c0 .7978-.641694 1.441406-1.439453 1.441406h-7.199219c-.79776 0-1.441407-.643606-1.441407-1.441406v-1.439453c2.393281 0 4.320313-1.927013 4.320313-4.320313v-2.878906c0-2.3933-1.927033-4.320313-4.320313-4.320313v-1.439453c0-.7978.643647-1.441406 1.441407-1.441406zm-11.519531 5.759766h2.878906 4.320312 2.878906c.797761 0 1.441407.643606 1.441407 1.441406v2.878906c0 .7978-.643647 1.441406-1.441407 1.441406h-10.078124c-.797761 0-1.441407-.643606-1.441407-1.441406v-2.878906c0-.7978.643646-1.441406 1.441407-1.441406z" fill="#4d4d4d"/></svg>

<svg xmlns="http://www.w3.org/2000/svg" viewBox="0 0 48 48">
 <path 
     style="fill:#4d4d4d" 
     d="M 10.320312 12.480469 C 7.9270325 12.480469 6 14.407481 6 16.800781 L 6 31.199219 C 6 33.592519 7.9270325 35.519531 10.320312 35.519531 L 17.519531 35.519531 C 19.912811 35.519531 21.839844 33.592519 21.839844 31.199219 L 21.839844 29.759766 L 26.160156 29.759766 L 26.160156 31.199219 C 26.160156 33.592519 28.087189 35.519531 30.480469 35.519531 L 37.679688 35.519531 C 40.072967 35.519531 42 33.592519 42 31.199219 L 42 16.800781 C 42 14.407481 40.072968 12.480469 37.679688 12.480469 L 30.480469 12.480469 C 28.087189 12.480469 26.160156 14.407481 26.160156 16.800781 L 26.160156 18.240234 L 21.839844 18.240234 L 21.839844 16.800781 C 21.839844 14.407481 19.912811 12.480469 17.519531 12.480469 L 10.320312 12.480469 z M 10.320312 15.359375 L 17.519531 15.359375 C 18.317291 15.359375 18.960938 16.002981 18.960938 16.800781 L 18.960938 18.240234 C 16.567657 18.240234 14.640625 20.167247 14.640625 22.560547 L 14.640625 25.439453 C 14.640625 27.832753 16.567658 29.759766 18.960938 29.759766 L 18.960938 31.199219 C 18.960938 31.997019 18.317291 32.640625 17.519531 32.640625 L 10.320312 32.640625 C 9.5225525 32.640625 8.8808594 31.997019 8.8808594 31.199219 L 8.8808594 16.800781 C 8.8808594 16.002981 9.5225525 15.359375 10.320312 15.359375 z M 30.480469 15.359375 L 37.679688 15.359375 C 38.477447 15.359375 39.119141 16.002981 39.119141 16.800781 L 39.119141 31.199219 C 39.119141 31.997019 38.477447 32.640625 37.679688 32.640625 L 30.480469 32.640625 C 29.682709 32.640625 29.039062 31.997019 29.039062 31.199219 L 29.039062 29.759766 C 31.432343 29.759766 33.359375 27.832753 33.359375 25.439453 L 33.359375 22.560547 C 33.359375 20.167247 31.432342 18.240234 29.039062 18.240234 L 29.039062 16.800781 C 29.039062 16.002981 29.682709 15.359375 30.480469 15.359375 z M 18.960938 21.119141 L 21.839844 21.119141 L 26.160156 21.119141 L 29.039062 21.119141 C 29.836823 21.119141 30.480469 21.762747 30.480469 22.560547 L 30.480469 25.439453 C 30.480469 26.237253 29.836822 26.880859 29.039062 26.880859 L 18.960938 26.880859 C 18.163177 26.880859 17.519531 26.237253 17.519531 25.439453 L 17.519531 22.560547 C 17.519531 21.762747 18.163177 21.119141 18.960938 21.119141 z "
     />
 </svg>
